assets/Mosquito/Flat/mosquito_flat.svg

<svg width="32" height="32" viewBox="0 0 32 32" fill="none" xmlns="http://www.w3.org/2000/svg">
<path d="M11.5 18C11.7761 18 12 18.2239 12 18.5V23.5C12 26.063 10.9209 27.7131 9.54215 28.7058C8.18889 29.6801 6.58001 30 5.49999 30C5.22385 30 4.99999 29.7761 4.99999 29.5C4.99999 29.2239 5.22385 29 5.49999 29C6.41998 29 7.81109 28.7199 8.95784 27.8942C10.0791 27.0869 11 25.737 11 23.5V18.5C11 18.2239 11.2239 18 11.5 18Z" fill="#402A32"/>
<path d="M16 18.5C16 18.2239 15.7761 18 15.5 18C15.2239 18 15 18.2239 15 18.5V23.5C15 25.8781 16.0917 27.4778 17.4517 28.4888C18.7918 29.4849 20.3864 29.9089 21.4585 29.9983C21.7337 30.0212 21.9753 29.8167 21.9983 29.5415C22.0212 29.2663 21.8167 29.0247 21.5415 29.0017C20.6136 28.9244 19.2082 28.5484 18.0483 27.6862C16.9083 26.8388 16 25.5219 16 23.5V18.5Z" fill="#402A32"/>
<path d="M14 19.5C14 19.2239 13.7761 19 13.5 19C13.2239 19 13 19.2239 13 19.5V29.5C13 29.7761 13.2239 30 13.5 30C13.7761 30 14 29.7761 14 29.5V19.5Z" fill="#402A32"/>
<path d="M2.64922 29.8181L8.25598 19.8355L7.01497 19.0745L2.03223 29.4978C1.9485 29.6729 2.02439 29.8827 2.20081 29.9638C2.36541 30.0394 2.56051 29.976 2.64922 29.8181Z" fill="#402A32"/>
<path d="M16.1312 19.1095L26.1356 28.6647C26.5667 29.0764 27.2459 29.0743 27.6743 28.6599C28.0225 28.3231 28.1122 27.7996 27.896 27.3662L21.7205 14.9866C20.7747 13.0905 18.3817 12.4513 16.6163 13.6233C14.733 14.8735 14.4965 17.5482 16.1312 19.1095Z" fill="#8C5543"/>
<path d="M13.5 20C15.9853 20 18 17.9853 18 15.5C18 13.9387 17.2048 12.563 15.9974 11.756L15.6437 11L14.7485 11.1754C14.3521 11.0612 13.9332 11 13.5 11C11.0147 11 9 13.0147 9 15.5C9 17.9853 11.0147 20 13.5 20Z" fill="#7D4533"/>
<path d="M8 21C9.10457 21 10 20.1046 10 19C10 17.8954 9.10457 17 8 17C6.89543 17 6 17.8954 6 19C6 20.1046 6.89543 21 8 21Z" fill="#7D4533"/>
<path d="M8.125 19.5C8.125 19.8452 7.84518 20.125 7.5 20.125C7.15482 20.125 6.875 19.8452 6.875 19.5C6.875 19.1548 7.15482 18.875 7.5 18.875C7.84518 18.875 8.125 19.1548 8.125 19.5Z" fill="#212121"/>
<path d="M15.2361 13.0289L21.1263 7.33334L26.4104 2.5475C27.2622 1.77598 28.5695 1.8083 29.3821 2.62098C30.3627 3.60157 30.1759 5.23948 28.9997 5.97406L23.2104 9.58966L15.9183 13.922C15.6659 14.0719 15.3408 14.0039 15.1697 13.7654C15.0061 13.5374 15.0343 13.2239 15.2361 13.0289Z" fill="#F4F4F4"/>
<path d="M17.9051 3.03523L14.7306 11.1703C15.1925 11.3014 15.6242 11.5043 16.0127 11.7663L20.7383 4.48859C21.4112 3.45236 20.7059 2.07689 19.4718 2.01841C18.7854 1.98589 18.1549 2.39512 17.9051 3.03523Z" fill="#F4F4F4"/>
</svg>

<svg xmlns="http://www.w3.org/2000/svg" width="32" height="32" fill="none"><path fill="#402A32" d="M11.5 18a.5.5 0 0 1 .5.5v5c0 2.563-1.08 4.213-2.458 5.206C8.19 29.68 6.58 30 5.5 30a.5.5 0 0 1 0-1c.92 0 2.311-.28 3.458-1.106C10.079 27.087 11 25.737 11 23.5v-5a.5.5 0 0 1 .5-.5ZM16 18.5a.5.5 0 0 0-1 0v5c0 2.378 1.092 3.978 2.452 4.989 1.34.996 2.934 1.42 4.006 1.51a.5.5 0 0 0 .084-.997c-.928-.078-2.334-.454-3.494-1.316C16.908 26.84 16 25.522 16 23.5v-5ZM14 19.5a.5.5 0 0 0-1 0v10a.5.5 0 0 0 1 0v-10ZM2.65 29.818l5.606-9.983-1.241-.76-4.983 10.423a.348.348 0 0 0 .617.32Z"/><path fill="#8C5543" d="m16.131 19.11 10.005 9.555a1.11 1.11 0 0 0 1.76-1.299l-6.175-12.38a3.525 3.525 0 1 0-5.59 4.123Z"/><path fill="#7D4533" d="M13.5 20a4.5 4.5 0 0 0 2.497-8.244L15.644 11l-.896.175A4.504 4.504 0 0 0 9 15.5a4.5 4.5 0 0 0 4.5 4.5Z"/><path fill="#7D4533" d="M8 21a2 2 0 1 0 0-4 2 2 0 0 0 0 4Z"/><path fill="#212121" d="M8.125 19.5a.625.625 0 1 1-1.25 0 .625.625 0 0 1 1.25 0Z"/><path fill="#F4F4F4" d="m15.236 13.029 5.89-5.696 5.284-4.786A2.156 2.156 0 1 1 29 5.974L23.21 9.59l-7.292 4.332a.566.566 0 0 1-.682-.893ZM17.905 3.035l-3.174 8.135a4.48 4.48 0 0 1 1.282.596l4.725-7.277a1.6 1.6 0 1 0-2.833-1.454Z"/></svg>
